dist/icons/svgs/exclamation-triangle-outline.svg

<svg xmlns="http://www.w3.org/2000/svg" width="24" height="24" fill="currentcolor" class="icon-exclamation-triangle-outline" viewBox="0 0 24 24">
  <path d="M11.6875 5.32031L3.95312 18.0156C3.875 18.1328 3.875 18.2109 3.875 18.3281C3.875 18.6406 4.10938 18.875 4.42188 18.875H19.5391C19.8516 18.875 20.125 18.6406 20.125 18.3281C20.125 18.2109 20.0859 18.1328 20.0078 18.0156L12.2734 5.32031C12.2344 5.20312 12.1172 5.125 12 5.125C11.8438 5.125 11.7656 5.20312 11.6875 5.32031ZM10.0859 4.34375C10.4766 3.67969 11.2188 3.25 12 3.25C12.7422 3.25 13.4844 3.67969 13.875 4.34375L21.6094 17.0391C21.8438 17.4297 22 17.8594 22 18.3281C22 19.6562 20.9062 20.75 19.5391 20.75H4.42188C3.09375 20.75 2 19.6562 2 18.3281C2 17.8594 2.11719 17.4297 2.35156 17.0391L10.0859 4.34375ZM13.25 16.375C13.25 17.0781 12.6641 17.625 12 17.625C11.2969 17.625 10.75 17.0781 10.75 16.375C10.75 15.7109 11.2969 15.125 12 15.125C12.6641 15.125 13.25 15.7109 13.25 16.375ZM12.9375 9.1875V12.9375C12.9375 13.4844 12.5078 13.875 12 13.875C11.4531 13.875 11.0625 13.4844 11.0625 12.9375V9.1875C11.0625 8.67969 11.4531 8.25 12 8.25C12.5078 8.25 12.9375 8.67969 12.9375 9.1875Z"/>
</svg>

<svg xmlns="http://www.w3.org/2000/svg" width="24" height="24" fill="currentColor" class="icon-exclamation-triangle-outline" viewBox="0 0 24 24">
  <path d="M11.688 5.32 3.952 18.016c-.078.117-.078.195-.078.312 0 .313.234.547.547.547h15.117c.313 0 .586-.234.586-.547 0-.117-.04-.195-.117-.312L12.273 5.32A.29.29 0 0 0 12 5.125c-.156 0-.234.078-.312.195m-1.602-.976A2.25 2.25 0 0 1 12 3.25c.742 0 1.484.43 1.875 1.094l7.734 12.695c.235.39.391.82.391 1.29 0 1.327-1.094 2.421-2.46 2.421H4.421A2.434 2.434 0 0 1 2 18.328q0-.703.352-1.289zm3.164 12.031c0 .703-.586 1.25-1.25 1.25-.703 0-1.25-.547-1.25-1.25 0-.664.547-1.25 1.25-1.25.664 0 1.25.586 1.25 1.25m-.312-7.187v3.75c0 .546-.43.937-.938.937-.547 0-.937-.39-.937-.937v-3.75c0-.508.39-.938.937-.938a.95.95 0 0 1 .938.938"/>
</svg>
